src/assets/images/core.svg

<svg xmlns="http://www.w3.org/2000/svg" width="500" height="487" fill="none"><path fill="url(#a)" d="M20.834 329.815C71.17 444.612 204.05 493.92 308.162 485.515c28.427-2.296 85.62-6.914 130.281-48.12 85.763-79.136 72.556-244.552-9.545-341.944-10.574-12.537-83.757-96.564-197.8-95.44C147.601.835 88.996 46.856 81.874 52.59c-9.006 7.244-28.861 24.455-46.756 51.761-42.045 64.154-45.74 153.716-14.284 225.465"/><path fill="url(#b)" d="M315.482 395.424c-.206-2.555-2.815-4.767-7.234-6.54 4.802-2.647 7.458-5.485 7.234-8.267-.678-8.423-27.351-13.145-59.578-10.548s-57.793 11.532-57.113 19.955c.206 2.554 2.816 4.765 7.234 6.538-4.801 2.648-7.459 5.486-7.234 8.269.206 2.554 2.816 4.766 7.234 6.537-4.801 2.649-7.459 5.487-7.234 8.27.206 2.554 2.816 4.766 7.234 6.539-4.801 2.647-7.459 5.485-7.234 8.268.301 3.726 5.692 6.725 14.391 8.688a75 75 0 0 0 .221 9.098c1.261 15.518 18.717 27.687 41.806 27.687s43.07-16.589 43.297-32.161a78 78 0 0 0-.452-10.157c11.047-3.689 17.775-8.205 17.422-12.566-.205-2.555-2.815-4.766-7.233-6.538 4.802-2.649 7.458-5.486 7.233-8.269-.205-2.554-2.815-4.766-7.233-6.539 4.806-2.644 7.463-5.482 7.239-8.264"/><path fill="#7D97F4" d="M241 446.486c-9.568 0-18.324-.714-25.559-2.091a.78.78 0 0 1-.638-.602.77.77 0 0 1 .113-.594.77.77 0 0 1 .507-.331.8.8 0 0 1 .309.007c11.319 2.167 26.44 2.646 42.576 1.345 13.2-1.07 25.549-3.195 35.705-6.159a.775.775 0 0 1 .434 1.486c-10.255 3.002-22.709 5.142-36.016 6.213a217 217 0 0 1-17.431.726m.165-14.818c-12.433 0-23.546-1.169-31.382-3.402a.775.775 0 1 1 .425-1.488c11.168 3.181 29.15 4.165 48.104 2.638 18.747-1.512 36.233-5.317 46.772-10.178a.774.774 0 0 1 .649 1.406c-10.703 4.934-28.378 8.788-47.298 10.315-5.906.471-11.723.709-17.27.709m-.162-14.805c-13.424 0-25.172-1.374-33.08-3.982a.773.773 0 0 1 .486-1.469c11.004 3.628 29.658 4.816 49.9 3.189 18.745-1.513 36.231-5.317 46.772-10.178a.76.76 0 0 1 .592-.024.77.77 0 0 1 .435.402.77.77 0 0 1 .024.592.78.78 0 0 1-.402.435c-10.703 4.934-28.379 8.789-47.298 10.314-5.995.491-11.857.721-17.429.721m.103-14.805c-10.649 0-20.335-.861-27.864-2.534a.78.78 0 0 1-.594-.621.8.8 0 0 1 .129-.578.76.76 0 0 1 .499-.317.8.8 0 0 1 .301.007c11.324 2.515 27.627 3.166 44.731 1.783 18.58-1.498 35.975-5.26 46.533-10.067a.76.76 0 0 1 .592-.021.8.8 0 0 1 .434.404.8.8 0 0 1 .02.593.8.8 0 0 1-.159.256.8.8 0 0 1-.245.177c-10.713 4.877-28.301 8.69-47.052 10.201-5.923.478-11.756.717-17.325.717"/><path fill="url(#c)" d="M177.169 320.679a109 109 0 0 0-19.515-38.099c-19.18-24.175-50.48-73.341-54.325-140.444C97.726 44.533 184.289-4.333 263.281 2.301c78.991 6.634 156.934 65.448 148.408 156.257-5.25 55.87-36.521 98.248-59.804 122.586-14.786 15.454-25.329 34.381-31.037 54.994-6.987 25.228-23.615 56.667-63.145 58.582-51.145 2.474-72.39-45.196-80.534-74.041"/><path fill="url(#d)" d="m270.757 375.252 27.649-179.765c.57-3.713 2.397-6.207 4.081-5.57s2.586 4.163 2.015 7.878c-.016.099-.035.222-.053.318l-31.483 178.093c-.236 1.339-.917 2.185-1.518 1.891s-.889-1.547-.691-2.845"/><path fill="url(#e)" d="m242.075 376.677-27.639-179.764c-.571-3.714-2.399-6.207-4.081-5.571s-2.587 4.165-2.016 7.879c.016.098.036.221.054.318l31.481 178.094c.237 1.34.919 2.186 1.52 1.889s.879-1.546.681-2.845"/><path fill="#fff" d="M298.198 180.053c-.703-1.13-2.319-1.551-3.628-.942l-15.39 7.19-5.351-15.221a3.27 3.27 0 0 0-1.872-1.883c-1.771-.73-3.888-.077-4.728 1.457l-.029.05-12.664 23.076-11.745-32.851-.019-.054a3.75 3.75 0 0 0-1.784-2.004c-1.962-1.071-4.57-.562-5.811 1.145l-17.693 24.357c-.714.999-.473 2.336.622 3.075 1.17.787 2.854.605 3.764-.41l15.579-17.378 14.056 31.25.011.025c.253.539.692.968 1.236 1.211 1.316.615 2.959.191 3.671-.951l13.535-21.72 5.094 10.986.047.098q.055.12.126.233c.701 1.128 2.319 1.549 3.625.941l18.26-8.541c1.308-.603 1.789-2.01 1.088-3.139" opacity=".7"/><path fill="url(#f)" d="M176.927 204.387c-4.995 4.761-13.186 9.425-25.686 8.164-23.751-2.401-26.295-24.451-23.706-35.982 2.185-9.728 22.528-24.512 40.352-15.395 3.781 1.935 8.05-1.375 7.3-5.737l-8.979-52.304-57.413 11.535c-4.995 1.003-9.242-3.924-7.835-9.154 1.538-5.708 2.658-13.3 1.825-22.338-1.928-20.87-20.335-27.011-36.758-22.429-14.15 3.946-28.037 30.07-8.5 50.997 3.825 4.094 1.754 11.169-3.538 12.233l-48.31 9.724 10.626 61.876c11.575-22.077 34.375-21.214 46.301-3.418 11.97 17.866 7.952 36.892-11.284 42.031-9.837 2.629-17.167-.022-21.96-3.211-2.506-1.664-5.575.551-5.04 3.662l8.576 49.945 47.733-7.927c5.296-.879 9.572 5.196 7.033 10.192-2.203 4.335-3.644 9.572-2.91 15.464 2.115 17.029 16.722 31.279 32.909 30.555 16.304-.729 30.444-19.576 25.226-35.466-2.474-7.529-6.639-14.384-10.331-19.503-3.077-4.271-.86-10.346 4.075-11.16l57.311-9.525-8.541-49.731c-.715-4.165-5.514-5.922-8.476-3.098"/><path fill="url(#g)" d="M483.159 124.476c-4.186 2.58-9.311 5.013-15.176 6.39-32.464 7.629-30.518-34.047-14.627-51.856 8.131-9.111 18.508-7.056 26.756-2.825 6.065 3.11 13.259-1.606 12.843-8.551l-3.371-56.968-53.2 4.66c-5.958.52-9.276 7.313-6.233 12.498 3.513 5.983 6.887 14.191 7.48 24.177 1.304 22.045-27.211 29.482-36.399 30.884-8.306 1.266-42.275-11.821-24.019-50.213 2.651-5.576-1.437-11.92-7.352-11.403l-58.823 5.148 3.339 56.43c.28 4.706-4.637 7.706-8.406 5.212-17.793-11.753-41.071 1.499-44.532 11.54-4.102 11.899-4.011 35.544 20.852 40.886 13.082 2.81 22.311-1.161 28.151-5.611 3.472-2.644 8.343-.216 8.609 4.281l3.175 53.653 60.685-3.261c6.023-.323 9.161-7.527 5.415-12.466-5.351-7.06-11.366-15.637-13.096-20.669-3.311-9.632.963-30.091 23.674-34.763 22.917-4.713 40.628 10.08 40.931 31.06a67.7 67.7 0 0 1-3.679 23.145c-1.82 5.242 2.304 10.702 7.745 10.417l55.611-2.988-3.066-51.82c-.387-6.691-7.638-10.469-13.287-6.987"/><defs><linearGradient id="a" x1="-26.687" x2="334.92" y1="553.28" y2="162.974" gradientUnits="userSpaceOnUse"><stop offset="1" stop-color="#F4815A" stop-opacity=".26"/></linearGradient><linearGradient id="b" x1="300.14" x2="263.139" y1="280.627" y2="389.821" gradientUnits="userSpaceOnUse"><stop stop-color="#09005D"/><stop offset="1" stop-color="#1A0F91"/></linearGradient><linearGradient id="c" x1="260.641" x2="251.617" y1="18.293" y2="388.286" gradientUnits="userSpaceOnUse"><stop offset="1" stop-color="#FFC727"/></linearGradient><linearGradient id="d" x1="286.462" x2="297.812" y1="247.025" y2="607.651" gradientUnits="userSpaceOnUse"><stop stop-color="#E1473D"/><stop offset="1" stop-color="#E9605A"/></linearGradient><linearGradient id="e" x1="223.947" x2="235.297" y1="248.993" y2="609.619" gradientUnits="userSpaceOnUse"><stop stop-color="#E1473D"/><stop offset="1" stop-color="#E9605A"/></linearGradient><linearGradient id="f" x1="149.255" x2="55.403" y1="77.559" y2="301.36" gradientUnits="userSpaceOnUse"><stop offset="1" stop-color="#1B1092"/></linearGradient><linearGradient id="g" x1="430.637" x2="339.186" y1="-13.008" y2="268.562" gradientUnits="userSpaceOnUse"><stop offset="1" stop-color="#1B1092"/></linearGradient></defs></svg>

<svg width="500" height="487" viewBox="0 0 500 487" fill="none" xmlns="http://www.w3.org/2000/svg">
<path d="M20.8339 329.815C71.1712 444.612 204.05 493.92 308.162 485.515C336.589 483.219 393.782 478.601 438.443 437.395C524.206 358.259 510.999 192.843 428.898 95.4506C418.324 82.9144 345.141 -1.11259 231.098 0.0111684C147.601 0.83526 88.9962 46.8559 81.8737 52.5889C72.8676 59.8327 53.0127 77.0441 35.1181 104.35C-6.92659 168.504 -10.6225 258.066 20.8339 329.815Z" fill="url(#paint0_linear_542_55)"/>
<path d="M315.482 395.424C315.276 392.869 312.667 390.657 308.248 388.884C313.05 386.237 315.706 383.399 315.482 380.617C314.804 372.194 288.131 367.472 255.904 370.069C223.677 372.666 198.111 381.601 198.791 390.024C198.997 392.578 201.607 394.789 206.025 396.562C201.224 399.21 198.566 402.048 198.791 404.831C198.997 407.385 201.607 409.597 206.025 411.368C201.224 414.017 198.566 416.855 198.791 419.638C198.997 422.192 201.607 424.404 206.025 426.177C201.224 428.824 198.566 431.662 198.791 434.445C199.092 438.171 204.483 441.17 213.182 443.133C213.071 446.167 213.145 449.205 213.403 452.231C214.664 467.749 232.12 479.918 255.209 479.918C278.298 479.918 298.279 463.329 298.506 447.757C298.576 444.365 298.425 440.972 298.054 437.6C309.101 433.911 315.829 429.395 315.476 425.034C315.271 422.479 312.661 420.268 308.243 418.496C313.045 415.847 315.701 413.01 315.476 410.227C315.271 407.673 312.661 405.461 308.243 403.688C313.049 401.044 315.706 398.206 315.482 395.424Z" fill="url(#paint1_linear_542_55)"/>
<path d="M241 446.486C231.432 446.486 222.676 445.772 215.441 444.395C215.338 444.379 215.24 444.343 215.151 444.288C215.063 444.233 214.987 444.161 214.927 444.076C214.867 443.991 214.825 443.895 214.803 443.793C214.781 443.692 214.779 443.587 214.799 443.484C214.818 443.382 214.858 443.285 214.916 443.199C214.974 443.112 215.049 443.039 215.136 442.982C215.223 442.925 215.321 442.886 215.423 442.868C215.525 442.85 215.63 442.852 215.732 442.875C227.051 445.042 242.172 445.521 258.308 444.22C271.508 443.15 283.857 441.025 294.013 438.061C294.208 438.009 294.416 438.036 294.592 438.135C294.768 438.235 294.898 438.399 294.954 438.593C295.011 438.786 294.989 438.995 294.895 439.173C294.8 439.351 294.639 439.485 294.447 439.547C284.192 442.549 271.738 444.689 258.431 445.76C252.439 446.246 246.582 446.486 241 446.486Z" fill="#7D97F4"/>
<path d="M241.165 431.668C228.732 431.668 217.619 430.499 209.783 428.266C209.682 428.241 209.587 428.197 209.503 428.134C209.419 428.072 209.349 427.993 209.297 427.903C209.244 427.813 209.21 427.713 209.197 427.61C209.184 427.506 209.193 427.401 209.221 427.301C209.25 427.201 209.298 427.107 209.364 427.026C209.43 426.945 209.511 426.878 209.603 426.829C209.695 426.781 209.796 426.751 209.9 426.742C210.004 426.733 210.109 426.746 210.208 426.778C221.376 429.959 239.358 430.943 258.312 429.416C277.059 427.904 294.545 424.099 305.084 419.238C305.27 419.152 305.483 419.144 305.676 419.215C305.868 419.286 306.025 419.43 306.111 419.616C306.197 419.803 306.206 420.016 306.135 420.209C306.064 420.401 305.919 420.558 305.733 420.644C295.03 425.578 277.355 429.432 258.435 430.959C252.529 431.43 246.712 431.668 241.165 431.668Z" fill="#7D97F4"/>
<path d="M241.003 416.863C227.579 416.863 215.831 415.489 207.923 412.881C207.733 412.813 207.577 412.674 207.489 412.492C207.4 412.311 207.386 412.102 207.449 411.91C207.512 411.718 207.648 411.559 207.828 411.466C208.007 411.372 208.215 411.353 208.409 411.412C219.413 415.04 238.067 416.228 258.309 414.601C277.054 413.088 294.54 409.284 305.081 404.423C305.173 404.38 305.273 404.356 305.374 404.352C305.476 404.348 305.577 404.364 305.673 404.399C305.768 404.434 305.856 404.488 305.93 404.557C306.005 404.626 306.065 404.709 306.108 404.801C306.151 404.893 306.175 404.993 306.179 405.095C306.183 405.196 306.167 405.298 306.132 405.393C306.097 405.488 306.043 405.576 305.974 405.651C305.905 405.725 305.822 405.786 305.73 405.828C295.027 410.762 277.351 414.617 258.432 416.142C252.437 416.633 246.575 416.863 241.003 416.863Z" fill="#7D97F4"/>
<path d="M241.106 402.058C230.457 402.058 220.771 401.197 213.242 399.524C213.143 399.502 213.049 399.46 212.966 399.402C212.883 399.344 212.812 399.27 212.758 399.184C212.703 399.098 212.666 399.003 212.648 398.903C212.631 398.803 212.633 398.701 212.655 398.601C212.677 398.502 212.718 398.409 212.777 398.325C212.835 398.242 212.909 398.171 212.995 398.117C213.08 398.062 213.176 398.025 213.276 398.008C213.376 397.99 213.478 397.993 213.577 398.015C224.901 400.53 241.204 401.181 258.308 399.798C276.888 398.3 294.283 394.538 304.841 389.731C304.933 389.689 305.033 389.665 305.135 389.662C305.237 389.658 305.338 389.675 305.433 389.71C305.528 389.746 305.616 389.8 305.69 389.869C305.764 389.939 305.824 390.022 305.867 390.114C305.909 390.207 305.932 390.307 305.936 390.408C305.939 390.51 305.923 390.611 305.887 390.707C305.852 390.802 305.798 390.889 305.728 390.963C305.659 391.038 305.576 391.098 305.483 391.14C294.77 396.017 277.182 399.83 258.431 401.341C252.508 401.819 246.675 402.058 241.106 402.058Z" fill="#7D97F4"/>
<path d="M177.169 320.679C173.247 306.814 166.614 293.864 157.654 282.58C138.474 258.405 107.174 209.239 103.329 142.136C97.7259 44.5332 184.289 -4.33254 263.281 2.30122C342.272 8.93498 420.215 67.7487 411.689 158.558C406.439 214.428 375.168 256.806 351.885 281.144C337.099 296.598 326.556 315.525 320.848 336.138C313.861 361.366 297.233 392.805 257.703 394.72C206.558 397.194 185.313 349.524 177.169 320.679Z" fill="url(#paint2_linear_542_55)"/>
<path d="M270.757 375.252L298.406 195.487C298.976 191.774 300.803 189.28 302.487 189.917C304.171 190.553 305.073 194.08 304.502 197.795C304.486 197.894 304.467 198.017 304.449 198.113L272.966 376.206C272.73 377.545 272.049 378.391 271.448 378.097C270.847 377.802 270.559 376.55 270.757 375.252Z" fill="url(#paint3_linear_542_55)"/>
<path d="M242.075 376.677L214.436 196.913C213.865 193.199 212.037 190.706 210.355 191.342C208.673 191.979 207.768 195.507 208.339 199.221C208.355 199.319 208.375 199.442 208.393 199.539L239.874 377.633C240.111 378.973 240.793 379.819 241.394 379.522C241.995 379.226 242.273 377.976 242.075 376.677Z" fill="url(#paint4_linear_542_55)"/>
<path opacity="0.7" d="M298.198 180.053C297.495 178.923 295.879 178.502 294.57 179.111L279.18 186.301L273.829 171.08C273.666 170.653 273.415 170.265 273.093 169.94C272.77 169.616 272.384 169.362 271.957 169.197C270.186 168.467 268.069 169.12 267.229 170.654L267.2 170.704L254.536 193.78L242.791 160.929L242.772 160.875C242.445 160.01 241.81 159.296 240.988 158.871C239.026 157.8 236.418 158.309 235.177 160.016L217.484 184.373C216.77 185.372 217.011 186.709 218.106 187.448C219.276 188.235 220.96 188.053 221.87 187.038L237.449 169.66L251.505 200.91L251.516 200.935C251.769 201.474 252.208 201.903 252.752 202.146C254.068 202.761 255.711 202.337 256.423 201.195L269.958 179.475L275.052 190.461L275.099 190.559C275.136 190.639 275.178 190.717 275.225 190.792C275.926 191.92 277.544 192.341 278.85 191.733L297.11 183.192C298.418 182.589 298.899 181.182 298.198 180.053Z" fill="white"/>
<path d="M176.927 204.387C171.932 209.148 163.741 213.812 151.241 212.551C127.49 210.15 124.946 188.1 127.535 176.569C129.72 166.841 150.063 152.057 167.887 161.174C171.668 163.109 175.937 159.799 175.187 155.437L166.208 103.133L108.795 114.668C103.8 115.671 99.553 110.744 100.96 105.514C102.498 99.8059 103.618 92.2142 102.785 83.176C100.857 62.3061 82.4504 56.1647 66.0274 60.7471C51.877 64.6928 37.9905 90.8176 57.5279 111.744C61.3522 115.838 59.2813 122.913 53.9889 123.977L5.67969 133.701L16.3055 195.577C27.8802 173.5 50.6801 174.363 62.6062 192.159C74.5751 210.025 70.5581 229.051 51.3222 234.19C41.4848 236.819 34.1554 234.168 29.3625 230.979C26.8563 229.315 23.7865 231.53 24.3216 234.641L32.8979 284.586L80.631 276.659C85.9269 275.78 90.2026 281.855 87.6643 286.851C85.4614 291.186 84.0201 296.423 84.7532 302.315C86.8687 319.344 101.476 333.594 117.663 332.87C133.967 332.141 148.107 313.294 142.889 297.404C140.415 289.875 136.25 283.02 132.558 277.901C129.481 273.63 131.698 267.555 136.633 266.741L193.944 257.216L185.403 207.485C184.688 203.32 179.889 201.563 176.927 204.387Z" fill="url(#paint5_linear_542_55)"/>
<path d="M483.159 124.476C478.973 127.056 473.848 129.489 467.983 130.866C435.519 138.495 437.465 96.8192 453.356 79.0103C461.487 69.8989 471.864 71.9538 480.112 76.1848C486.177 79.2957 493.371 74.5795 492.955 67.6336L489.584 10.666L436.384 15.3252C430.426 15.846 427.108 22.6385 430.151 27.8239C433.664 33.8066 437.038 42.0154 437.631 52.0008C438.935 74.0461 410.42 81.4826 401.232 82.8846C392.926 84.1511 358.957 71.0637 377.213 32.6721C379.864 27.0961 375.776 20.7513 369.861 21.2686L311.038 26.4165L314.377 82.8471C314.657 87.5527 309.74 90.5529 305.971 88.0592C288.178 76.3061 264.9 89.5576 261.439 99.5983C257.337 111.498 257.428 135.143 282.291 140.485C295.373 143.295 304.602 139.324 310.442 134.874C313.914 132.23 318.785 134.658 319.051 139.155L322.226 192.808L382.911 189.547C388.934 189.224 392.072 182.02 388.326 177.081C382.975 170.021 376.96 161.444 375.23 156.412C371.919 146.78 376.193 126.321 398.904 121.649C421.821 116.936 439.532 131.729 439.835 152.709C439.963 160.579 438.718 168.411 436.156 175.854C434.336 181.096 438.46 186.556 443.901 186.271L499.512 183.283L496.446 131.463C496.059 124.772 488.808 120.994 483.159 124.476Z" fill="url(#paint6_linear_542_55)"/>
<defs>
<linearGradient id="paint0_linear_542_55" x1="-26.6869" y1="553.28" x2="334.92" y2="162.974" gradientUnits="userSpaceOnUse">
<stop offset="1" stop-color="#F4815A" stop-opacity="0.26"/>
</linearGradient>
<linearGradient id="paint1_linear_542_55" x1="300.14" y1="280.627" x2="263.139" y2="389.821" gradientUnits="userSpaceOnUse">
<stop stop-color="#09005D"/>
<stop offset="1" stop-color="#1A0F91"/>
</linearGradient>
<linearGradient id="paint2_linear_542_55" x1="260.641" y1="18.2925" x2="251.617" y2="388.286" gradientUnits="userSpaceOnUse">
<stop offset="1" stop-color="#FFC727"/>
</linearGradient>
<linearGradient id="paint3_linear_542_55" x1="286.462" y1="247.025" x2="297.812" y2="607.651" gradientUnits="userSpaceOnUse">
<stop stop-color="#E1473D"/>
<stop offset="1" stop-color="#E9605A"/>
</linearGradient>
<linearGradient id="paint4_linear_542_55" x1="223.947" y1="248.993" x2="235.297" y2="609.619" gradientUnits="userSpaceOnUse">
<stop stop-color="#E1473D"/>
<stop offset="1" stop-color="#E9605A"/>
</linearGradient>
<linearGradient id="paint5_linear_542_55" x1="149.255" y1="77.559" x2="55.4034" y2="301.36" gradientUnits="userSpaceOnUse">
<stop offset="1" stop-color="#1B1092"/>
</linearGradient>
<linearGradient id="paint6_linear_542_55" x1="430.637" y1="-13.0079" x2="339.186" y2="268.562" gradientUnits="userSpaceOnUse">
<stop offset="1" stop-color="#1B1092"/>
</linearGradient>
</defs>
</svg>
